X: 34
T:Dinky's Reel
T:Dinkie Dorian's Reel
M:C|
L:1/8
R:Reel
K:AMix
ed[|:c2Bc ABcd|egfg edBd|gB~B2 gBaB|gB~B2 gfed|!
c2Bc ABcd|egfd "var."edef|g3e f2ed|1cABc A2ed:|2cABc A2fg|!
|:aA~A2 aAbA|aA~A2 agef|gB~B2 gBaB|gB~B2 gefg|!
aA~A2 aAbA|aA~A2 agef|g3e f2ed|cABc A2fg||!
aA~A2 aAbA|aA~A2 agef|gB~B2 gBaB|gB~B2 gefg|!
aA~A2 gA~A2|fA~A2 edef|g3e f2ed|cABc A2ed|]!
"alt. last 4 bars"a3f g3e|f2ed cdef|gbge f2ed|cABc A2ed|]!
